resources/svg/solid/warehouse.svg

<svg fill="currentColor" xmlns="http://www.w3.org/2000/svg" viewBox="0 0 640 512"><!--! Font Awesome Free 6.6.0 by @fontawesome - https://fontawesome.com License - https://fontawesome.com/license/free (Icons: CC BY 4.0, Fonts: SIL OFL 1.1, Code: MIT License) Copyright 2024 Fonticons, Inc. --><path d="M0 488L0 171.3c0-26.2 15.9-49.7 40.2-59.4L308.1 4.8c7.6-3.1 16.1-3.1 23.8 0L599.8 111.9c24.3 9.7 40.2 33.3 40.2 59.4L640 488c0 13.3-10.7 24-24 24l-48 0c-13.3 0-24-10.7-24-24l0-264c0-17.7-14.3-32-32-32l-384 0c-17.7 0-32 14.3-32 32l0 264c0 13.3-10.7 24-24 24l-48 0c-13.3 0-24-10.7-24-24zm488 24l-336 0c-13.3 0-24-10.7-24-24l0-56 384 0 0 56c0 13.3-10.7 24-24 24zM128 400l0-64 384 0 0 64-384 0zm0-96l0-80 384 0 0 80-384 0z"/></svg>

<svg fill="currentColor" xmlns="http://www.w3.org/2000/svg" viewBox="0 0 640 512"><!--! Font Awesome Free 6.5.2 by @fontawesome - https://fontawesome.com License - https://fontawesome.com/license/free (Icons: CC BY 4.0, Fonts: SIL OFL 1.1, Code: MIT License) Copyright 2024 Fonticons, Inc. --><path d="M0 488V171.3c0-26.2 15.9-49.7 40.2-59.4L308.1 4.8c7.6-3.1 16.1-3.1 23.8 0L599.8 111.9c24.3 9.7 40.2 33.3 40.2 59.4V488c0 13.3-10.7 24-24 24H568c-13.3 0-24-10.7-24-24V224c0-17.7-14.3-32-32-32H128c-17.7 0-32 14.3-32 32V488c0 13.3-10.7 24-24 24H24c-13.3 0-24-10.7-24-24zm488 24l-336 0c-13.3 0-24-10.7-24-24V432H512l0 56c0 13.3-10.7 24-24 24zM128 400V336H512v64H128zm0-96V224H512l0 80H128z"/></svg>
